files/2/96x96/places/user-home.svg

<?xml version="1.0" encoding="UTF-8" standalone="no"?>
<svg
   xmlns:dc="http://purl.org/dc/elements/1.1/"
   xmlns:cc="http://creativecommons.org/ns#"
   xmlns:rdf="http://www.w3.org/1999/02/22-rdf-syntax-ns#"
   xmlns:svg="http://www.w3.org/2000/svg"
   xmlns="http://www.w3.org/2000/svg"
   xmlns:sodipodi="http://sodipodi.sourceforge.net/DTD/sodipodi-0.dtd"
   xmlns:inkscape="http://www.inkscape.org/namespaces/inkscape"
   width="96"
   viewBox="0 0 96 96"
   height="96"
   id="svg2999"
   version="1.1"
   inkscape:version="0.48.5 r10040"
   sodipodi:docname="user-home.svg">
  <metadata
     id="metadata3017">
    <rdf:RDF>
      <cc:Work
         rdf:about="">
        <dc:format>image/svg+xml</dc:format>
        <dc:type
           rdf:resource="http://purl.org/dc/dcmitype/StillImage" />
      </cc:Work>
    </rdf:RDF>
  </metadata>
  <defs
     id="defs3015" />
  <sodipodi:namedview
     pagecolor="#ffffff"
     bordercolor="#666666"
     borderopacity="1"
     objecttolerance="10"
     gridtolerance="10"
     guidetolerance="10"
     inkscape:pageopacity="0"
     inkscape:pageshadow="2"
     inkscape:window-width="1280"
     inkscape:window-height="998"
     id="namedview3013"
     showgrid="true"
     inkscape:zoom="9.8333333"
     inkscape:cx="39.012102"
     inkscape:cy="31.622922"
     inkscape:window-x="0"
     inkscape:window-y="0"
     inkscape:window-maximized="1"
     inkscape:current-layer="svg2999">
    <inkscape:grid
       type="xygrid"
       id="grid2997"
       empspacing="5"
       visible="true"
       enabled="true"
       snapvisiblegridlinesonly="true" />
  </sodipodi:namedview>
  <path
     style="font-size:medium;font-style:normal;font-variant:normal;font-weight:normal;font-stretch:normal;text-indent:0;text-align:start;text-decoration:none;line-height:normal;letter-spacing:normal;word-spacing:normal;text-transform:none;direction:ltr;block-progression:tb;writing-mode:lr-tb;text-anchor:start;baseline-shift:baseline;color:#000000;fill:#e9b080;fill-opacity:1;fill-rule:nonzero;stroke:none;stroke-width:1;marker:none;visibility:visible;display:inline;overflow:visible;enable-background:accumulate;font-family:Sans;-inkscape-font-specification:Sans"
     d="m 12.000041,12.000037 c -1.999999,0 -3.999998,1.999998 -3.999998,3.999997 l 0,3.999998 -1.999999,0 c -1.999999,0 -4.0111358,1.898413 -3.999998,3.999998 l 0,55.999972 C 2.000302,82.241469 4.075571,83.9998 6.3750438,84 L 89.625002,84 C 92.000001,84 94,82.000001 94,80.000002 l 0,-49.999975 c 0,-1.999999 -1.999999,-3.999998 -3.999998,-3.999998 l -3.999998,0 0,-9.999995 c 0,-1.999999 -1.999999,-3.999997 -3.999998,-3.999997 z"
     id="path3770"
     inkscape:connector-curvature="0"
     sodipodi:nodetypes="sscsccccccccsss" />
  <path
     inkscape:connector-curvature="0"
     style="font-size:medium;font-style:normal;font-variant:normal;font-weight:normal;font-stretch:normal;text-indent:0;text-align:start;text-decoration:none;line-height:normal;letter-spacing:normal;word-spacing:normal;text-transform:none;direction:ltr;block-progression:tb;writing-mode:lr-tb;text-anchor:start;baseline-shift:baseline;color:#000000;fill:#000000;fill-opacity:0.32156863;fill-rule:nonzero;stroke:none;stroke-width:1;marker:none;visibility:visible;display:inline;overflow:visible;enable-background:accumulate;font-family:Sans;-inkscape-font-specification:Sans"
     d="m 12.000041,12.000037 c -1.999999,0 -3.999998,1.999998 -3.999998,3.999997 l 0,3.999998 -1.999999,0 c -1.999999,0 -4.0111358,1.898413 -3.999998,3.999998 l 0,55.999972 C 2.000302,82.241469 4.075571,83.9998 6.3750438,84 L 89.625002,84 C 92.000001,84 94,82.000001 94,80.000002 l 0,-49.999975 c 0,-1.999999 -1.999999,-3.999998 -3.999998,-3.999998 l -3.999998,0 0,-9.999995 c 0,-1.999999 -1.999999,-3.999997 -3.999998,-3.999997 l -69.999965,0 z m -5.999997,9.999994 47.999976,0 c 1.014627,0 1.999999,0.988334 1.999999,1.999999 l 0,3.999998 33.999983,0 c 1.081715,0 1.999999,0.943618 1.999999,1.999999 l 0,49.999975 c 0,1.107509 -0.90423,1.999999 -1.999999,1.999999 l -83.999958,0 c -1.0254515,0 -1.999999,-0.892492 -1.999999,-1.999999 l 0,-55.999972 c 0,-1.086635 0.9580835,-1.999999 1.999999,-1.999999 z"
     id="path3779" />
  <g
     id="g4056"
     transform="matrix(1.999999,0,0,1.999999,31.999985,40.000022)"
     style="opacity:0.4;fill:#3c2f1b;fill-opacity:1">
    <path
       sodipodi:nodetypes="cssccccsscc"
       inkscape:connector-curvature="0"
       id="rect2989"
       d="m 2,7 0,7 c 0,1.108 0.892,2 2,2 l 2,0 0,-6 4,0 0,6 2,0 c 1.108,0 2,-0.892 2,-2 l 0,-7 z"
       style="fill:#3c2f1b;fill-opacity:1" />
    <path
       sodipodi:nodetypes="ccccccc"
       inkscape:connector-curvature="0"
       id="path3761"
       d="m 2,6 c -2.20338983,2 -3,2 0,2 l 12,0 c 3,0 2.288136,0 0,-2 L 9,1 C 8,0 8,0 7,1 z"
       style="fill:#3c2f1b;fill-opacity:1;stroke:none" />
    <path
       sodipodi:nodetypes="ssccss"
       inkscape:connector-curvature="0"
       id="rect3763"
       d="m 13,1 c 1,0 1,0.446 1,1 l 0,4 -2,0 0,-4 c 0,-0.554 0,-1 1,-1 z"
       style="fill:#3c2f1b;fill-opacity:1;stroke:none" />
  </g>
</svg>

<svg xmlns="http://www.w3.org/2000/svg" xmlns:xlink="http://www.w3.org/1999/xlink" width="96px" height="96px" viewBox="0 0 96 96" version="1.1">
<g id="surface1">
<path style=" stroke:none;fill-rule:nonzero;fill:rgb(91.372549%,69.019608%,50.196078%);fill-opacity:1;" d="M 12 12 C 10 12 8 14 8 16 L 8 20 L 6 20 C 4 20 1.988281 21.898438 2 24 L 2 80 C 2 82.242188 4.074219 84 6.375 84 L 89.625 84 C 92 84 94 82 94 80 L 94 30 C 94 28 92 26 90 26 L 86 26 L 86 16 C 86 14 84 12 82 12 Z M 12 12 "/>
<path style=" stroke:none;fill-rule:nonzero;fill:rgb(0%,0%,0%);fill-opacity:0.321569;" d="M 48 40 L 32 56 L 36 56 L 36 68 L 60 68 L 60 56 L 64 56 L 58 50 L 58 42 L 54 42 L 54 46 Z M 48 40 "/>
<path style=" stroke:none;fill-rule:nonzero;fill:rgb(0%,0%,0%);fill-opacity:0.321569;" d="M 12 12 C 10 12 8 14 8 16 L 8 20 L 6 20 C 4 20 1.988281 21.898438 2 24 L 2 80 C 2 82.242188 4.074219 84 6.375 84 L 89.625 84 C 92 84 94 82 94 80 L 94 30 C 94 28 92 26 90 26 L 86 26 L 86 16 C 86 14 84 12 82 12 Z M 6 22 L 54 22 C 55.015625 22 56 22.988281 56 24 L 56 28 L 90 28 C 91.082031 28 92 28.945312 92 30 L 92 80 C 92 81.109375 91.097656 82 90 82 L 6 82 C 4.972656 82 4 81.109375 4 80 L 4 24 C 4 22.914062 4.957031 22 6 22 Z M 6 22 "/>
</g>
</svg>
